app/dog-project/images/socials/social.svg

<svg width="16" height="17" viewBox="0 0 16 17" fill="none" xmlns="http://www.w3.org/2000/svg">
<path d="M10.9133 15.9442C10.9267 15.9402 10.9394 15.9349 10.9527 15.9302C19.104 12.6954 16.8491 0.5 8.00783 0.5C3.57082 0.5 0 4.11276 0 8.49872C0 14.0492 5.62817 18.0099 10.9133 15.9442ZM3.52411 13.8705C4.09267 12.916 5.93247 10.2231 9.07287 9.29393C9.72951 10.9663 10.19 12.9173 10.2353 15.1297C7.85568 15.9289 5.34589 15.391 3.52411 13.8705ZM11.2196 14.7124C11.1322 12.5867 10.6978 10.7017 10.0785 9.06863C11.4679 8.852 13.0761 8.99664 14.8999 9.72653C14.5122 11.9002 13.1208 13.7272 11.2196 14.7124ZM15.0047 8.69269C12.996 7.93881 11.2256 7.84483 9.69348 8.13678C9.45658 7.60353 9.20767 7.09095 8.94408 6.61902C11.295 5.68117 12.6844 4.53802 13.3063 3.93278C14.4041 5.20191 15.0561 6.84499 15.0047 8.69269ZM12.5956 3.2209C12.0298 3.75881 10.6971 4.84531 8.41823 5.73383C7.30114 3.96878 6.10664 2.72364 5.3499 2.02642C7.77093 1.03058 10.563 1.45585 12.5956 3.2209ZM4.39296 2.51501C4.96419 3.01693 6.21808 4.22207 7.42793 6.08577C5.7663 6.62036 3.68293 7.01296 1.14912 7.06828C1.55218 5.13926 2.75603 3.50485 4.39296 2.51501ZM1.02233 8.07212C3.85844 8.02613 6.15402 7.57887 7.96846 6.97363C8.21937 7.41289 8.4576 7.89149 8.68649 8.38874C5.52674 9.39391 3.55214 11.9888 2.79607 13.1606C1.57621 11.8009 0.90355 10.0265 1.02233 8.07212Z" fill="#211105"/>
</svg>

<svg width="16" height="17" fill="none" xmlns="http://www.w3.org/2000/svg"><path d="M10.913 15.944l.04-.014C19.104 12.695 16.849.5 8.008.5 3.57.5 0 4.113 0 8.499c0 5.55 5.628 9.51 10.913 7.445zM3.524 13.87c.569-.954 2.408-3.647 5.549-4.576a16.828 16.828 0 011.162 5.836 6.965 6.965 0 01-6.71-1.26zm7.696.842a17.928 17.928 0 00-1.142-5.643c1.39-.217 2.998-.072 4.822.658a7.016 7.016 0 01-3.68 4.985zm3.785-6.02c-2.009-.753-3.78-.847-5.312-.555a18.7 18.7 0 00-.749-1.518c2.351-.938 3.74-2.081 4.362-2.686a6.904 6.904 0 011.699 4.76zm-2.41-5.471c-.565.538-1.898 1.624-4.177 2.513A18.71 18.71 0 005.35 2.026a6.971 6.971 0 017.246 1.195zm-8.202-.706c.571.502 1.825 1.707 3.035 3.57-1.662.535-3.745.928-6.279.983a7.012 7.012 0 013.244-4.553zm-3.37 5.557c2.835-.046 5.131-.493 6.945-1.098.251.439.49.917.718 1.415-3.16 1.005-5.134 3.6-5.89 4.772a6.903 6.903 0 01-1.774-5.089z" fill="#211105"/></svg>
